X:19042
T:Scarborough Fair
R:Waltz
C:Trad.
O:England
Z:Paul Hardy's Session Tunebook 2015 (see www.paulhardy.net). Creative Commons cc by-nc-sa licenced.
M:3/4
L:1/8
Q:1/4=120
K:Edor
"Em"E4E2|B4B2|"D"F3GF2|"Em"E6-|E2 B2d2|e4d2|"A"B2c2A2|"Em"B6-|B4e2|
e4e2|"G"d4B2|B2A2G2|"D"F2D4-|D6|"Em"E4B2|"D"A4"G"G2|"D"F2E2D2|"Em"E6-|E6:|]

